Papirus/48x48/apps/qbittorrent.svg

<svg xmlns="http://www.w3.org/2000/svg" width="48" height="48" version="1">
 <circle fill="#2f67ba" cx="24" cy="24" r="20"/>
 <path fill="#fff" d="m24 4c-11.079 0-19.998 8.92-19.998 20 0 0.16772-0.004 0.33329 0 0.5 0.2642-10.846 9.087-19.5 19.998-19.5s19.734 8.6536 19.998 19.5c0.004-0.16671 0-0.33228 0-0.5 0-11.08-8.919-20-19.998-20z" style="opacity:0.1"/>
 <path opacity=".2" d="m43.979 24.418a20 20 0 0 1 -19.979 19.582 20 20 0 0 1 -19.978 -19.418 20 20 0 0 0 -0.022 0.418 20 20 0 0 0 20 20 20 20 0 0 0 20 -20 20 20 0 0 0 -0.021 -0.582z"/>
 <path d="m 15,17 c -4.418278,0 -8,3.581722 -8,8 0,4.418278 3.581722,8 8,8 1.405048,-0.0025 2.784651,-0.375029 4,-1.080078 L 19,39 a 2,2 0 0 0 2,2 2,2 0 0 0 2,-2 l 0,-14 0,-8 -4,0 0,1.083984 C 17.78503,17.377571 16.405403,17.003709 15,17 Z m 0,4 c 2.209139,0 4,1.790861 4,4 0,2.209139 -1.790861,4 -4,4 -2.209139,0 -4,-1.790861 -4,-4 0,-2.209139 1.790861,-4 4,-4 z" style="opacity:0.2"/>
 <path style="fill:#64d4f9" d="M 15 16 C 10.581722 16 7 19.581722 7 24 C 7 28.418278 10.581722 32 15 32 C 16.405048 31.9975 17.784651 31.624971 19 30.919922 L 19 38 A 2 2 0 0 0 21 40 A 2 2 0 0 0 23 38 L 23 24 L 23 16 L 19 16 L 19 17.083984 C 17.78503 16.377571 16.405403 16.003709 15 16 z M 15 20 C 17.209139 20 19 21.790861 19 24 C 19 26.209139 17.209139 28 15 28 C 12.790861 28 11 26.209139 11 24 C 11 21.790861 12.790861 20 15 20 z"/>
 <path d="m 27,9 a 2,2 0 0 0 -2,2 l 0,14 0,8 4,0 0,-1.083984 c 1.21497,0.706413 2.594597,1.080275 4,1.083984 4.418278,0 8,-3.581722 8,-8 0,-4.418278 -3.581722,-8 -8,-8 -1.405048,0.0025 -2.784651,0.375029 -4,1.080078 L 29,11 A 2,2 0 0 0 27,9 Z m 6,12 c 2.209139,0 4,1.790861 4,4 0,2.209139 -1.790861,4 -4,4 -2.209139,0 -4,-1.790861 -4,-4 0,-2.209139 1.790861,-4 4,-4 z" style="opacity:0.2"/>
 <path style="fill:#ffffff" d="M 27 8 A 2 2 0 0 0 25 10 L 25 24 L 25 32 L 29 32 L 29 30.916016 C 30.21497 31.622429 31.594597 31.996291 33 32 C 37.418278 32 41 28.418278 41 24 C 41 19.581722 37.418278 16 33 16 C 31.594952 16.0025 30.215349 16.375029 29 17.080078 L 29 10 A 2 2 0 0 0 27 8 z M 33 20 C 35.209139 20 37 21.790861 37 24 C 37 26.209139 35.209139 28 33 28 C 30.790861 28 29 26.209139 29 24 C 29 21.790861 30.790861 20 33 20 z"/>
</svg>

<svg xmlns="http://www.w3.org/2000/svg" width="48" height="48" version="1">
 <circle fill="#2f67ba" cx="24" cy="24" r="20"/>
 <path fill="#fff" opacity=".2" d="m24 4c-11.079 0-19.998 8.92-19.998 20 0 0.16772-0.004 0.33329 0 0.5 0.2642-10.846 9.087-19.5 19.998-19.5s19.734 8.6536 19.998 19.5c0.004-0.16671 0-0.33228 0-0.5 0-11.08-8.919-20-19.998-20z"/>
 <path opacity=".2" d="m43.979 24.418a20 20 0 0 1 -19.979 19.582 20 20 0 0 1 -19.978 -19.418 20 20 0 0 0 -0.022 0.418 20 20 0 0 0 20 20 20 20 0 0 0 20 -20 20 20 0 0 0 -0.021 -0.582z"/>
 <path opacity=".2" d="m15 17a8 8 0 0 0 -8 8 8 8 0 0 0 8 8 8 8 0 0 0 4 -1.0801v9.08h4v-16-8h-4v1.084a8 8 0 0 0 -4 -1.084zm0 4a4 4 0 0 1 4 4 4 4 0 0 1 -4 4 4 4 0 0 1 -4 -4 4 4 0 0 1 4 -4z"/>
 <path fill="#7fc1de" d="m15 16a8 8 0 0 0 -8 8 8 8 0 0 0 8 8 8 8 0 0 0 4 -1.0801v9.08h4v-16-8h-4v1.084a8 8 0 0 0 -4 -1.084zm0 4a4 4 0 0 1 4 4 4 4 0 0 1 -4 4 4 4 0 0 1 -4 -4 4 4 0 0 1 4 -4z"/>
 <path opacity=".2" d="m33 33a8 8 0 0 0 8 -8 8 8 0 0 0 -8 -8 8 8 0 0 0 -4 1.0801v-9.08h-4v16 8h4v-1.084a8 8 0 0 0 4 1.084zm0-4a4 4 0 0 1 -4 -4 4 4 0 0 1 4 -4 4 4 0 0 1 4 4 4 4 0 0 1 -4 4z"/>
 <path fill="#fff" d="m33 32a8 8 0 0 0 8 -8 8 8 0 0 0 -8 -8 8 8 0 0 0 -4 1.0801v-9.08h-4v16 8h4v-1.084a8 8 0 0 0 4 1.084zm0-4a4 4 0 0 1 -4 -4 4 4 0 0 1 4 -4 4 4 0 0 1 4 4 4 4 0 0 1 -4 4z"/>
</svg>
